img/ic-credit-card.svg

<svg width="48" height="48" viewBox="0 0 48 48" fill="none" xmlns="http://www.w3.org/2000/svg">
<path d="M24 33.375C23.4825 33.375 23.0625 33.795 23.0625 34.3125C23.0625 34.83 23.4825 35.25 24 35.25C24.5175 35.25 24.9375 34.83 24.9375 34.3125C24.9375 33.795 24.5175 33.375 24 33.375Z" fill="#17696A"/>
<path d="M45.1875 18.375H41.8125C41.8125 15.2505 41.8125 7.39746 41.8125 4.3125C41.8125 2.7616 40.5509 1.5 39 1.5H2.8125C1.2616 1.5 0 2.7616 0 4.3125V26.8125C0 28.3634 1.2616 29.625 2.8125 29.625H6.1875V43.6875C6.1875 45.2384 7.4491 46.5 9 46.5H45.1875C46.7384 46.5 48 45.2384 48 43.6875V21.1875C48 19.6366 46.7384 18.375 45.1875 18.375ZM1.875 9H39.9375V12.75H1.875V9ZM2.8125 3.375H39C39.5171 3.375 39.9375 3.79541 39.9375 4.3125V7.125H1.875V4.3125C1.875 3.79541 2.29541 3.375 2.8125 3.375ZM2.8125 27.75C2.29541 27.75 1.875 27.3296 1.875 26.8125V14.625H39.9375V18.375H9C7.4491 18.375 6.1875 19.6366 6.1875 21.1875V27.75H2.8125ZM46.125 43.6875C46.125 44.2046 45.7046 44.625 45.1875 44.625H9C8.48291 44.625 8.0625 44.2046 8.0625 43.6875V21.1875C8.0625 20.6704 8.48291 20.25 9 20.25H45.1875C45.7046 20.25 46.125 20.6704 46.125 21.1875V43.6875Z" fill="#17696A"/>
<path d="M37.125 24C36.1029 24 35.1174 24.3354 34.3121 24.9393C33.5076 24.3354 32.5225 24 31.5 24C28.9153 24 26.8125 26.1028 26.8125 28.6875C26.8125 31.2722 28.9153 33.375 31.5 33.375C32.5225 33.375 33.5079 33.0396 34.3121 32.4357C35.1174 33.0396 36.1029 33.375 37.125 33.375C39.7097 33.375 41.8125 31.2722 41.8125 28.6875C41.8125 26.1028 39.7097 24 37.125 24ZM28.6875 28.6875C28.6875 27.1366 29.9491 25.875 31.5 25.875C32.3064 25.875 33.0747 26.2222 33.6083 26.8275C33.6083 26.8279 33.6086 26.8282 33.609 26.8286C34.0627 27.3417 34.3125 28.002 34.3125 28.6875C34.3125 29.373 34.0627 30.0333 33.6083 30.5475C33.0747 31.1528 32.3064 31.5 31.5 31.5C29.9491 31.5 28.6875 30.2384 28.6875 28.6875ZM37.125 31.5C36.5636 31.5 36.0205 31.3312 35.5616 31.0247C35.9685 30.3186 36.1875 29.514 36.1875 28.6875C36.1875 27.861 35.9685 27.0564 35.5616 26.3503C36.0205 26.0438 36.5636 25.875 37.125 25.875C38.6759 25.875 39.9375 27.1366 39.9375 28.6875C39.9375 30.2384 38.6759 31.5 37.125 31.5Z" fill="#17696A"/>
<path d="M16.5 39H12.75C12.2322 39 11.8125 39.4197 11.8125 39.9375C11.8125 40.4553 12.2322 40.875 12.75 40.875H16.5C17.0178 40.875 17.4375 40.4553 17.4375 39.9375C17.4375 39.4197 17.0178 39 16.5 39Z" fill="#17696A"/>
<path d="M24 39H20.25C19.7322 39 19.3125 39.4197 19.3125 39.9375C19.3125 40.4553 19.7322 40.875 20.25 40.875H24C24.5178 40.875 24.9375 40.4553 24.9375 39.9375C24.9375 39.4197 24.5178 39 24 39Z" fill="#17696A"/>
<path d="M31.5 39H27.75C27.2322 39 26.8125 39.4197 26.8125 39.9375C26.8125 40.4553 27.2322 40.875 27.75 40.875H31.5C32.0178 40.875 32.4375 40.4553 32.4375 39.9375C32.4375 39.4197 32.0178 39 31.5 39Z" fill="#17696A"/>
<path d="M39 39H35.25C34.7322 39 34.3125 39.4197 34.3125 39.9375C34.3125 40.4553 34.7322 40.875 35.25 40.875H39C39.5178 40.875 39.9375 40.4553 39.9375 39.9375C39.9375 39.4197 39.5178 39 39 39Z" fill="#17696A"/>
<path d="M12.75 35.25H20.25C20.7678 35.25 21.1875 34.8303 21.1875 34.3125C21.1875 33.7947 20.7678 33.375 20.25 33.375H12.75C12.2322 33.375 11.8125 33.7947 11.8125 34.3125C11.8125 34.8303 12.2322 35.25 12.75 35.25Z" fill="#17696A"/>
</svg>

<svg width="48" height="48" fill="none" xmlns="http://www.w3.org/2000/svg"><path d="M24 33.375a.938.938 0 100 1.876.938.938 0 000-1.876z" fill="#17696A"/><path d="M45.188 18.375h-3.376V4.312A2.816 2.816 0 0039 1.5H2.812A2.816 2.816 0 000 4.313v22.5a2.816 2.816 0 002.813 2.812h3.374v14.063A2.816 2.816 0 009 46.5h36.188A2.816 2.816 0 0048 43.687v-22.5a2.816 2.816 0 00-2.813-2.812zM1.874 9h38.063v3.75H1.874V9zm.938-5.625H39c.517 0 .938.42.938.938v2.812H1.874V4.312c0-.517.42-.937.938-.937zm0 24.375a.938.938 0 01-.938-.938V14.626h38.063v3.75H9a2.816 2.816 0 00-2.813 2.813v6.562H2.813zm43.312 15.938c0 .517-.42.937-.938.937H9a.938.938 0 01-.938-.938v-22.5c0-.517.42-.937.938-.937h36.188c.517 0 .937.42.937.938v22.5z" fill="#17696A"/><path d="M37.125 24a4.69 4.69 0 00-2.813.94A4.685 4.685 0 0031.5 24a4.693 4.693 0 00-4.688 4.688 4.693 4.693 0 004.688 4.687 4.685 4.685 0 002.812-.94 4.69 4.69 0 002.813.94 4.693 4.693 0 004.688-4.688A4.693 4.693 0 0037.124 24zm-8.438 4.688a2.812 2.812 0 014.92-1.86h.002a2.804 2.804 0 010 3.72 2.812 2.812 0 01-4.922-1.86zm8.438 2.812a2.816 2.816 0 01-1.563-.475 4.68 4.68 0 000-4.675 2.816 2.816 0 011.563-.475 2.816 2.816 0 012.813 2.813 2.816 2.816 0 01-2.813 2.812zM16.5 39h-3.75a.937.937 0 100 1.875h3.75a.937.937 0 100-1.875zM24 39h-3.75a.937.937 0 100 1.875H24A.937.937 0 1024 39zM31.5 39h-3.75a.937.937 0 100 1.875h3.75a.937.937 0 100-1.875zM39 39h-3.75a.937.937 0 100 1.875H39A.937.937 0 1039 39zM12.75 35.25h7.5a.937.937 0 100-1.875h-7.5a.937.937 0 100 1.875z" fill="#17696A"/></svg>
